X: 21042
T: My Daddy Oh!
C:
R: jig
B: RSCDS 21-4(II)
Z: 1997 by John Chambers <jc:trillian.mit.edu>
M: 6/8
L: 1/8
%--------------------
K: G
|| d \
| "G"BAB G2g | d2B Bcd | "C"e2c "G"d2B | "Am"cBc "D7"Adc |
| "G"BAB G2g | d2B Bcd | "C"e2e "Am"a2a | "D7"fef "G"g2 ||
|| G \
| "G"Bcd d2g | "C"e2c "G"d2B | "Am"c2a "G"B2g | "Am"A2B "D7"cBA |
| "G"GAG "Em"B2G | "G"dBd "C"gfe | "G"dcB "D7"Agf | "G"g3- g2 |]
%%center Book21/21042-My_Daddy_Oh-1.abc

%%sep 1 1 500
%%sep 1 1 500

